X: 64
T:White Heather Jig
M:6/8
L:1/8
C:Anon
S:Chris Duncan
R:Jig
B:
K:G
D|"1"G2 G F&gt;GA|G2 G G2 z|B2 B A&gt;Bc|B3-B2 B|c2 c A2 c|B2 BG2 B|!
A&gt;BA G&gt;FE|D2 Z d3|"9"G2 G F&gt;GA|G2 G G2 z|B2 B A&gt;Bc|B3-B2 B|!
c2 A F2 e|d2 c B2 d|ded cBA|G2 z z2 z||
K:D
"17"A2 B B2 A|Aed A3|!
A2 f fef|g3-g2 A/A/|A2 e e2 d|d2 c c3|ded c2 B|B2 _B A2 A|!
"25"A2 B B2 A|Afd A3|a2 d d2 c|B3-B2 B/B/|B2 g g2 B|A2 f f2 d|!
c2 A ABc|c3 D3
K:G
||"33"G2 G F&gt;GA|G2 G G2 z|B2 B A&gt;Bc|B3-B2 B|!
c2 A F2 e|d2 c B2 d|ded cBA|"40"G3 GF=F
K:C
||"1"E3 B,3|C3 E3|!
A2 G G2 ^F|G3-G3|E3 B,3|C2 E A2 G|G3-G3|B,3-B,3|!
"9"D3 ^C3|D2 A, F2 E|D2 D ^CDE|D3-D3|D2 ^D E2 F|^F2 c B2 A|!
G2 g ag^f|g3 G^F=F|"17"E3 B,3|C3 E3|A2 G G ^F|G3-G3|!
e3 c3|G3 E3|B2 A A2 ^G|A3-A3|"25"f2 e d2 ^c|d3 g3|!
e2 d cBA|G3-G2^G|A2 c cBA|G2 e e2 c|BAG FED|C2 z D3||!
K:G
"33"G2 G F&gt;GA|G2 G G2 z|B2 B A&gt;Bc|B3-B2 B|!
c2 A F2 e|d2 c B2 d|ded [cd][Be][Af]|"40"[G2g2] z D3||

